lib/flags/l/BQ-BO.svg

<svg xmlns="http://www.w3.org/2000/svg" fill="none" viewBox="0 0 32 24"><mask id="BQ-BO_svg__a" width="32" height="24" x="0" y="0" mask-type="alpha" maskUnits="userSpaceOnUse"><path fill="#fff" d="M0 0H32V24H0z"/></mask><g mask="url(#BQ-BO_svg__a)"><path fill="#fff" fill-rule="evenodd" d="M0 0H32V24H0V0Z" clip-rule="evenodd"/><path fill="#FEDA00" fill-rule="evenodd" d="M0 10.9333V0H16L0 10.9333Z" clip-rule="evenodd"/><path fill="#00268D" fill-rule="evenodd" d="M0 24H32.009V0L0 24Z" clip-rule="evenodd"/><mask id="BQ-BO_svg__b" fill="#fff"><path fill-rule="evenodd" d="M9.35333 5L9.88021 6.13122C12.026 6.38728 13.6976 8.18766 13.752 10.3893L14.7067 10.8667L13.6636 11.3882C13.29 13.2109 11.7892 14.6229 9.92151 14.8637L9.35333 16L8.78516 14.8637C6.91744 14.6229 5.41664 13.2109 5.04302 11.3882L4 10.8667L4.9547 10.3893C5.00875 8.19991 6.66211 6.40732 8.79069 6.13564L9.35333 5Z" clip-rule="evenodd"/></mask><path fill="#fff" fill-rule="evenodd" d="M9.35333 5L9.88021 6.13122C12.026 6.38728 13.6976 8.18766 13.752 10.3893L14.7067 10.8667L13.6636 11.3882C13.29 13.2109 11.7892 14.6229 9.92151 14.8637L9.35333 16L8.78516 14.8637C6.91744 14.6229 5.41664 13.2109 5.04302 11.3882L4 10.8667L4.9547 10.3893C5.00875 8.19991 6.66211 6.40732 8.79069 6.13564L9.35333 5Z" clip-rule="evenodd"/><path fill="#000" d="M9.88021 6.13122L9.16226 6.46561L9.34846 6.86538L9.78637 6.91764L9.88021 6.13122ZM9.35333 5L10.0713 4.66561L9.37538 3.17149L8.64366 4.6484L9.35333 5ZM13.752 10.3893L12.9602 10.4089L12.972 10.8848L13.3978 11.0977L13.752 10.3893ZM14.7067 10.8667L15.0609 11.5751L16.4776 10.8667L15.0609 10.1583L14.7067 10.8667ZM13.6636 11.3882L13.3095 10.6798L12.9651 10.852L12.8878 11.2291L13.6636 11.3882ZM9.92151 14.8637L9.82024 14.0782L9.4018 14.1321L9.21312 14.5095L9.92151 14.8637ZM9.35333 16L8.64495 16.3542L9.35333 17.771L10.0617 16.3542L9.35333 16ZM8.78516 14.8637L9.49355 14.5095L9.30487 14.1321L8.88643 14.0782L8.78516 14.8637ZM5.04302 11.3882L5.81889 11.2291L5.74158 10.852L5.39721 10.6798L5.04302 11.3882ZM4 10.8667L3.64581 10.1583L2.22903 10.8667L3.64581 11.5751L4 10.8667ZM4.9547 10.3893L5.30889 11.0977L5.73471 10.8848L5.74646 10.4089L4.9547 10.3893ZM8.79069 6.13564L8.89097 6.92126L9.31196 6.86753L9.50037 6.48724L8.79069 6.13564ZM10.5982 5.79683L10.0713 4.66561L8.63539 5.33439L9.16226 6.46561L10.5982 5.79683ZM14.5437 10.3698C14.4796 7.77083 12.507 5.64707 9.97405 5.3448L9.78637 6.91764C11.545 7.1275 12.9157 8.60448 12.9602 10.4089L14.5437 10.3698ZM15.0609 10.1583L14.1062 9.68093L13.3978 11.0977L14.3525 11.5751L15.0609 10.1583ZM14.0178 12.0966L15.0609 11.5751L14.3525 10.1583L13.3095 10.6798L14.0178 12.0966ZM10.0228 15.6492C12.2285 15.3648 13.9984 13.6991 14.4395 11.5472L12.8878 11.2291C12.5816 12.7228 11.3499 13.8809 9.82024 14.0782L10.0228 15.6492ZM9.21312 14.5095L8.64495 15.6458L10.0617 16.3542L10.6299 15.2178L9.21312 14.5095ZM10.0617 15.6458L9.49355 14.5095L8.07677 15.2178L8.64495 16.3542L10.0617 15.6458ZM4.26715 11.5472C4.70822 13.6991 6.47813 15.3648 8.68389 15.6492L8.88643 14.0782C7.35675 13.8809 6.12506 12.7228 5.81889 11.2291L4.26715 11.5472ZM3.64581 11.5751L4.68882 12.0966L5.39721 10.6798L4.35419 10.1583L3.64581 11.5751ZM4.6005 9.68093L3.64581 10.1583L4.35419 11.5751L5.30889 11.0977L4.6005 9.68093ZM8.69042 5.35001C6.17777 5.67072 4.22675 7.78525 4.16294 10.3698L5.74646 10.4089C5.79076 8.61457 7.14645 7.14393 8.89097 6.92126L8.69042 5.35001ZM8.64366 4.6484L8.08102 5.78403L9.50037 6.48724L10.063 5.3516L8.64366 4.6484Z" mask="url(#BQ-BO_svg__b)"/><path fill="#F00A17" fill-rule="evenodd" d="M9.37578 8.30005L8.72675 9.38911H7.44666L8.08496 10.5333L7.44666 11.6308H8.72675L9.37578 12.7505L10.0347 11.6308H11.3033L10.6806 10.5333L11.3033 9.38911H10.0347L9.37578 8.30005Z" clip-rule="evenodd"/></g></svg>

<svg xmlns="http://www.w3.org/2000/svg" fill="none" viewBox="0 0 32 24"><mask id="BQ-BO_svg__a" width="32" height="24" x="0" y="0" maskUnits="userSpaceOnUse"><path fill="#fff" d="M0 0h32v24H0z"/></mask><g mask="url(#BQ-BO_svg__a)"><path fill="#fff" fill-rule="evenodd" d="M0 0h32v24H0V0z" clip-rule="evenodd"/><path fill="#FEDA00" fill-rule="evenodd" d="M0 10.933V0h16L0 10.933z" clip-rule="evenodd"/><path fill="#00268D" fill-rule="evenodd" d="M0 24h32.009V0L0 24z" clip-rule="evenodd"/><mask id="BQ-BO_svg__b" fill="#fff"><path fill-rule="evenodd" d="M9.353 5l.527 1.131a4.4 4.4 0 013.872 4.258l.955.478-1.043.521a4.404 4.404 0 01-3.742 3.476L9.353 16l-.568-1.136a4.404 4.404 0 01-3.742-3.476L4 10.867l.955-.478A4.4 4.4 0 018.79 6.136L9.353 5z" clip-rule="evenodd"/></mask><path fill="#fff" fill-rule="evenodd" d="M9.353 5l.527 1.131a4.4 4.4 0 013.872 4.258l.955.478-1.043.521a4.404 4.404 0 01-3.742 3.476L9.353 16l-.568-1.136a4.404 4.404 0 01-3.742-3.476L4 10.867l.955-.478A4.4 4.4 0 018.79 6.136L9.353 5z" clip-rule="evenodd"/><path fill="#000" d="M9.88 6.131l-.718.335.186.4.438.052.094-.787zM9.353 5l.718-.334-.696-1.495-.731 1.477.71.352zm4.399 5.39l-.792.019.012.476.426.213.354-.709zm.955.477l.354.708 1.417-.708-1.417-.709-.354.709zm-1.043.521l-.354-.708-.345.172-.077.377.776.16zm-3.742 3.476l-.102-.786-.418.054-.189.377.709.355zM9.353 16l-.708.354.708 1.417.709-1.417L9.353 16zm-.568-1.136l.709-.355-.19-.377-.418-.054-.1.786zm-3.742-3.476l.776-.159-.077-.377-.345-.172-.354.708zM4 10.867l-.354-.709-1.417.709 1.417.708.354-.708zm.955-.478l.354.709.426-.213.011-.476-.791-.02zM8.79 6.136l.1.785.421-.053.188-.38-.71-.352zm1.807-.34l-.527-1.13-1.436.668.527 1.132 1.436-.67zm3.946 4.574a5.193 5.193 0 00-4.57-5.025l-.188 1.573a3.609 3.609 0 013.174 3.49l1.584-.038zm.517-.212l-.955-.477-.708 1.417.954.477.709-1.417zm-1.043 1.939l1.043-.522-.709-1.417-1.043.522.709 1.417zm-3.995 3.552a5.196 5.196 0 004.417-4.102l-1.552-.318a3.612 3.612 0 01-3.068 2.85l.203 1.57zm-.81-1.14l-.568 1.137 1.417.708.568-1.136-1.417-.709zm.849 1.137l-.568-1.137-1.417.709.568 1.136 1.417-.708zm-5.795-4.099a5.196 5.196 0 004.417 4.102l.202-1.57a3.612 3.612 0 01-3.067-2.85l-1.552.318zm-.621.028l1.043.522.708-1.417-1.043-.522-.708 1.417zM4.6 9.681l-.955.477.708 1.417.955-.477L4.6 9.68zM8.69 5.35a5.193 5.193 0 00-4.528 5.02l1.583.039A3.609 3.609 0 018.891 6.92l-.2-1.571zm-.047-.702L8.08 5.784l1.42.703.562-1.135-1.42-.704z" mask="url(#BQ-BO_svg__b)"/><path fill="#F00A17" fill-rule="evenodd" d="M9.376 8.3l-.65 1.089h-1.28l.639 1.144-.638 1.098h1.28l.649 1.12.659-1.12h1.268l-.622-1.098.622-1.144h-1.268L9.375 8.3z" clip-rule="evenodd"/></g></svg>
